X: 27604
T: Monymusk
R: reel
M: 4/4
K: Amajor
af|:eAcf eAcf|eAcA Bcdf|e<Acf eAce|1 fdBd cA (3agf:|2 fdBd cAA2||
aece fece|aece fBB2|aece fece|fdBd cAAg|
aece fece|aece fBBg|(3aba (3gag (3fgf ec|defg a2 (3agf||

